;FLAVOR:Marlin
;TIME:8088
;Filament used: 7.21183m
;Layer height: 0.15
;Generated with Cura_SteamEngine 3.2.1
M190 S60
M104 S200
M109 S200
M82 ;absolute extrusion mode
G28 ;Home
G1 Z15.0 F6000 ;Move the platform down 15mm
;Prime the extruder
G92 E0
G1 F200 E3
G92 E0
;LAYER_COUNT:73
;LAYER:0
M107
G0 F3600 X68.876 Y46.509 Z0.3
;TYPE:SKIRT
G1 F1800 X69.37 Y45.893 E0.03939
G1 X70.182 Y45.102 E0.09595
G1 X70.979 Y44.432 E0.1479
G1 X71.608 Y43.956 E0.18725
G1 X72.283 Y43.545 E0.22668
G1 X73.328 Y43.074 E0.28386
G1 X74.308 Y42.717 E0.3359
G1 X75.063 Y42.485 E0.3753
G1 X75.837 Y42.33 E0.41468
G1 X76.971 Y42.246 E0.47142
G1 X125.492 Y42.2 E2.89214
G1 X126.28 Y42.239 E2.9315
G1 X126.846 Y42.317 E2.96001
G1 X127.873 Y42.497 E3.01202
G1 X128.642 Y42.673 E3.05138
G1 X129.391 Y42.925 E3.09081
G1 X130.431 Y43.428 E3.14844
G1 X131.332 Y43.949 E3.20037
G1 X131.994 Y44.378 E3.23972
G1 X132.61 Y44.872 E3.27912
G1 X133.398 Y45.682 E3.3355
G1 X134.068 Y46.479 E3.38744
G1 X134.544 Y47.108 E3.4268
G1 X134.955 Y47.783 E3.46622
G1 X135.426 Y48.828 E3.52341
G1 X135.783 Y49.808 E3.57545
G1 X136.015 Y50.563 E3.61485
G1 X136.17 Y51.337 E3.65423
G1 X136.254 Y52.471 E3.71096
G1 X136.3 Y100.992 E6.13169
G1 X136.261 Y101.78 E6.17105
G1 X136.183 Y102.347 E6.1996
G1 X136.003 Y103.373 E6.25157
G1 X135.827 Y104.143 E6.29098
G1 X135.574 Y104.891 E6.33037
G1 X135.074 Y105.926 E6.38772
G1 X134.553 Y106.828 E6.43969
G1 X134.451 Y106.985 E6.44903
G1 X134.544 Y107.108 E6.45672
G1 X134.955 Y107.783 E6.49615
G1 X135.426 Y108.828 E6.55333
G1 X135.783 Y109.808 E6.60537
G1 X136.015 Y110.563 E6.64478
G1 X136.17 Y111.337 E6.68416
G1 X136.254 Y112.471 E6.74089
G1 X136.3 Y160.992 E9.16161
G1 X136.261 Y161.78 E9.20097
G1 X136.183 Y162.347 E9.22953
G1 X136.003 Y163.373 E9.2815
G1 X135.827 Y164.143 E9.3209
G1 X135.574 Y164.891 E9.3603
G1 X135.074 Y165.926 E9.41764
G1 X134.553 Y166.828 E9.46961
G1 X134.124 Y167.491 E9.50901
G1 X133.63 Y168.107 E9.5484
G1 X132.818 Y168.898 E9.60496
G1 X132.021 Y169.568 E9.6569
G1 X131.392 Y170.044 E9.69626
G1 X130.717 Y170.455 E9.73569
G1 X129.672 Y170.926 E9.79287
G1 X128.692 Y171.283 E9.84491
G1 X127.937 Y171.515 E9.88431
G1 X127.163 Y171.67 E9.92369
G1 X126.029 Y171.754 E9.98042
G1 X77.508 Y171.8 E12.40115
G1 X76.72 Y171.761 E12.44051
G1 X76.154 Y171.683 E12.46901
G1 X75.127 Y171.503 E12.52103
G1 X74.358 Y171.327 E12.56039
G1 X73.609 Y171.075 E12.59982
G1 X72.569 Y170.572 E12.65745
G1 X71.668 Y170.051 E12.70938
G1 X71.006 Y169.622 E12.74873
G1 X70.39 Y169.128 E12.78813
G1 X69.602 Y168.318 E12.84451
G1 X68.932 Y167.521 E12.89645
G1 X68.456 Y166.892 E12.93581
G1 X68.045 Y166.217 E12.97523
G1 X67.574 Y165.172 E13.03242
G1 X67.217 Y164.192 E13.08445
G1 X66.985 Y163.437 E13.12386
G1 X66.83 Y162.663 E13.16324
G1 X66.746 Y161.529 E13.21997
G1 X66.7 Y113.008 E15.6407
G1 X66.739 Y112.22 E15.68006
G1 X66.817 Y111.653 E15.70861
G1 X66.997 Y110.627 E15.76058
G1 X67.173 Y109.857 E15.79999
G1 X67.426 Y109.109 E15.83938
G1 X67.926 Y108.074 E15.89673
G1 X68.447 Y107.172 E15.9487
G1 X68.549 Y107.015 E15.95804
G1 X68.456 Y106.892 E15.96573
G1 X68.045 Y106.217 E16.00516
G1 X67.574 Y105.172 E16.06234
G1 X67.217 Y104.192 E16.11438
G1 X66.985 Y103.437 E16.15378
G1 X66.83 Y102.663 E16.19317
G1 X66.746 Y101.529 E16.2499
G1 X66.7 Y53.008 E18.67062
G1 X66.739 Y52.22 E18.70998
G1 X66.817 Y51.653 E18.73854
G1 X66.997 Y50.627 E18.7905
G1 X67.173 Y49.857 E18.82991
G1 X67.426 Y49.109 E18.86931
G1 X67.926 Y48.074 E18.92665
G1 X68.447 Y47.172 E18.97862
G1 X68.876 Y46.509 E19.01802
G0 F3600 X69.212 Y46.727
G1 F1800 X69.695 Y46.128 E19.05641
G1 X70.439 Y45.409 E19.10803
G1 X71.236 Y44.739 E19.15997
G1 X71.85 Y44.275 E19.19837
G1 X72.508 Y43.877 E19.23673
G1 X73.465 Y43.45 E19.28902
G1 X74.445 Y43.093 E19.34105
G1 X75.181 Y42.868 E19.37945
G1 X75.935 Y42.72 E19.41778
G1 X76.971 Y42.646 E19.4696
G1 X125.492 Y42.6 E21.89032
G1 X126.26 Y42.639 E21.92869
G1 X126.777 Y42.711 E21.95473
G1 X127.804 Y42.891 E22.00675
G1 X128.553 Y43.063 E22.04509
G1 X129.281 Y43.312 E22.08348
G1 X130.23 Y43.774 E22.13613
G1 X131.131 Y44.295 E22.18806
G1 X131.776 Y44.714 E22.22643
G1 X132.374 Y45.198 E22.26481
G1 X133.091 Y45.939 E22.31626
G1 X133.761 Y46.736 E22.3682
G1 X134.225 Y47.35 E22.4066
G1 X134.623 Y48.008 E22.44496
G1 X135.05 Y48.965 E22.49725
G1 X135.407 Y49.945 E22.54928
G1 X135.632 Y50.681 E22.58768
G1 X135.78 Y51.435 E22.62601
G1 X135.854 Y52.471 E22.67783
G1 X135.9 Y100.992 E25.09855
G1 X135.861 Y101.76 E25.13692
G1 X135.789 Y102.278 E25.16301
G1 X135.609 Y103.304 E25.21498
G1 X135.437 Y104.053 E25.25332
G1 X135.188 Y104.781 E25.29171
G1 X134.728 Y105.726 E25.34414
G1 X134.207 Y106.628 E25.39611
G1 X133.963 Y107.003 E25.41843
G1 X134.225 Y107.35 E25.44012
G1 X134.623 Y108.008 E25.47849
G1 X135.05 Y108.965 E25.53077
G1 X135.407 Y109.945 E25.58281
G1 X135.632 Y110.681 E25.6212
G1 X135.78 Y111.435 E25.65954
G1 X135.854 Y112.471 E25.71136
G1 X135.9 Y160.992 E28.13208
G1 X135.861 Y161.76 E28.17044
G1 X135.789 Y162.278 E28.19654
G1 X135.609 Y163.304 E28.2485
G1 X135.437 Y164.053 E28.28685
G1 X135.188 Y164.781 E28.32523
G1 X134.728 Y165.726 E28.37767
G1 X134.207 Y166.628 E28.42963
G1 X133.788 Y167.273 E28.46801
G1 X133.305 Y167.872 E28.5064
G1 X132.561 Y168.591 E28.55802
G1 X131.764 Y169.261 E28.60996
G1 X131.15 Y169.725 E28.64836
G1 X130.492 Y170.123 E28.68672
G1 X129.535 Y170.55 E28.739
G1 X128.555 Y170.907 E28.79104
G1 X127.819 Y171.132 E28.82944
G1 X127.065 Y171.28 E28.86777
G1 X126.029 Y171.354 E28.91959
G1 X77.508 Y171.4 E31.34031
G1 X76.74 Y171.361 E31.37868
G1 X76.223 Y171.289 E31.40472
G1 X75.196 Y171.109 E31.45674
G1 X74.447 Y170.937 E31.49508
G1 X73.719 Y170.688 E31.53347
G1 X72.77 Y170.226 E31.58612
G1 X71.869 Y169.705 E31.63805
G1 X71.224 Y169.286 E31.67642
G1 X70.626 Y168.802 E31.7148
G1 X69.909 Y168.061 E31.76625
G1 X69.239 Y167.264 E31.81819
G1 X68.775 Y166.65 E31.85659
G1 X68.377 Y165.992 E31.89495
G1 X67.95 Y165.035 E31.94723
G1 X67.593 Y164.055 E31.99927
G1 X67.368 Y163.319 E32.03767
G1 X67.22 Y162.565 E32.076
G1 X67.146 Y161.529 E32.12782
G1 X67.1 Y113.008 E34.54854
G1 X67.139 Y112.24 E34.58691
G1 X67.211 Y111.722 E34.613
G1 X67.391 Y110.696 E34.66497
G1 X67.563 Y109.947 E34.70331
G1 X67.812 Y109.219 E34.7417
G1 X68.272 Y108.274 E34.79413
G1 X68.793 Y107.372 E34.8461
G1 X69.037 Y106.997 E34.86842
G1 X68.775 Y106.65 E34.89011
G1 X68.377 Y105.992 E34.92848
G1 X67.95 Y105.035 E34.98076
G1 X67.593 Y104.055 E35.03279
G1 X67.368 Y103.319 E35.07119
G1 X67.22 Y102.565 E35.10953
G1 X67.146 Y101.529 E35.16134
G1 X67.1 Y53.008 E37.58207
G1 X67.139 Y52.24 E37.62043
G1 X67.211 Y51.722 E37.64652
G1 X67.391 Y50.696 E37.69849
G1 X67.563 Y49.947 E37.73683
G1 X67.812 Y49.219 E37.77522
G1 X68.272 Y48.274 E37.82766
G1 X68.793 Y47.372 E37.87962
G1 X69.212 Y46.727 E37.918
G0 F3600 X69.548 Y46.945
G1 F1800 X70.021 Y46.365 E37.95534
G1 X70.697 Y45.715 E38.00212
G1 X71.494 Y45.045 E38.05407
G1 X72.091 Y44.595 E38.09137
G1 X72.733 Y44.211 E38.12869
G1 X73.602 Y43.826 E38.17611
G1 X74.582 Y43.469 E38.22814
G1 X75.298 Y43.251 E38.26548
G1 X76.032 Y43.11 E38.30277
G1 X76.971 Y43.046 E38.34973
G1 X125.492 Y43 E40.77045
G1 X126.239 Y43.039 E40.80777
G1 X126.707 Y43.105 E40.83135
G1 X127.734 Y43.285 E40.88337
G1 X128.463 Y43.453 E40.92069
G1 X129.17 Y43.699 E40.95804
G1 X130.03 Y44.12 E41.00581
G1 X130.931 Y44.641 E41.05773
G1 X131.558 Y45.05 E41.09508
G1 X132.137 Y45.523 E41.13238
G1 X132.785 Y46.197 E41.17903
G1 X133.455 Y46.994 E41.23097
G1 X133.905 Y47.591 E41.26827
G1 X134.289 Y48.233 E41.30559
G1 X134.674 Y49.102 E41.35301
G1 X135.031 Y50.082 E41.40505
G1 X135.249 Y50.798 E41.44239
G1 X135.39 Y51.532 E41.47968
G1 X135.454 Y52.471 E41.52663
G1 X135.5 Y100.992 E43.94736
G1 X135.461 Y101.739 E43.98468
G1 X135.395 Y102.209 E44.00835
G1 X135.215 Y103.235 E44.06032
G1 X135.046 Y103.963 E44.09761
G1 X134.801 Y104.67 E44.13494
G1 X134.382 Y105.526 E44.18249
G1 X133.861 Y106.428 E44.23445
G1 X133.475 Y107.02 E44.26971
G1 X133.905 Y107.591 E44.30538
G1 X134.289 Y108.233 E44.3427
G1 X134.674 Y109.102 E44.39012
G1 X135.031 Y110.082 E44.44215
G1 X135.249 Y110.798 E44.47949
G1 X135.39 Y111.532 E44.51678
G1 X135.454 Y112.471 E44.56374
G1 X135.5 Y160.992 E46.98446
G1 X135.461 Y161.739 E47.02178
G1 X135.395 Y162.209 E47.04546
G1 X135.215 Y163.235 E47.09743
G1 X135.046 Y163.963 E47.13471
G1 X134.801 Y164.67 E47.17204
G1 X134.382 Y165.526 E47.21959
G1 X133.861 Y166.428 E47.27156
G1 X133.452 Y167.055 E47.30891
G1 X132.979 Y167.635 E47.34625
G1 X132.303 Y168.285 E47.39303
G1 X131.506 Y168.955 E47.44498
G1 X130.909 Y169.405 E47.48228
G1 X130.267 Y169.789 E47.5196
G1 X129.398 Y170.174 E47.56702
G1 X128.418 Y170.531 E47.61905
G1 X127.702 Y170.749 E47.65639
G1 X126.968 Y170.89 E47.69368
G1 X126.029 Y170.954 E47.74064
G1 X77.508 Y171 E50.16136
G1 X76.761 Y170.961 E50.19868
G1 X76.293 Y170.895 E50.22226
G1 X75.266 Y170.715 E50.27428
G1 X74.537 Y170.547 E50.3116
G1 X73.83 Y170.301 E50.34895
G1 X72.97 Y169.88 E50.39672
G1 X72.069 Y169.359 E50.44864
G1 X71.442 Y168.95 E50.48599
G1 X70.863 Y168.477 E50.52329
G1 X70.215 Y167.803 E50.56994
G1 X69.545 Y167.006 E50.62188
G1 X69.095 Y166.409 E50.65918
G1 X68.711 Y165.767 E50.6965
G1 X68.326 Y164.898 E50.74392
G1 X67.969 Y163.918 E50.79596
G1 X67.751 Y163.202 E50.8333
G1 X67.61 Y162.468 E50.87059
G1 X67.546 Y161.529 E50.91754
G1 X67.5 Y113.008 E53.33827
G1 X67.539 Y112.261 E53.37559
G1 X67.605 Y111.791 E53.39926
G1 X67.785 Y110.765 E53.45123
G1 X67.954 Y110.037 E53.48852
G1 X68.199 Y109.33 E53.52585
G1 X68.618 Y108.474 E53.5734
G1 X69.139 Y107.572 E53.62536
G1 X69.525 Y106.98 E53.66062
G1 X69.095 Y106.409 E53.69629
G1 X68.711 Y105.767 E53.73361
G1 X68.326 Y104.898 E53.78103
G1 X67.969 Y103.918 E53.83306
G1 X67.751 Y103.202 E53.8704
G1 X67.61 Y102.468 E53.90769
G1 X67.546 Y101.529 E53.95465
G1 X67.5 Y53.008 E56.37537
G1 X67.539 Y52.261 E56.41269
G1 X67.605 Y51.791 E56.43637
G1 X67.785 Y50.765 E56.48834
G1 X67.954 Y50.037 E56.52562
G1 X68.199 Y49.33 E56.56295
G1 X68.618 Y48.474 E56.6105
G1 X69.139 Y47.572 E56.66247
G1 X69.548 Y46.945 E56.69982
G0 F3600 X69.883 Y47.164
G1 F1800 X70.345 Y46.603 E56.73607
G1 X70.954 Y46.021 E56.7781
G1 X71.751 Y45.351 E56.83005
G1 X72.332 Y44.915 E56.86629
G1 X72.957 Y44.545 E56.90252
G1 X73.739 Y44.202 E56.94512
G1 X74.719 Y43.845 E56.99716
G1 X75.414 Y43.634 E57.0334
G1 X76.128 Y43.501 E57.06963
G1 X76.972 Y43.446 E57.11183
G1 X125.493 Y43.4 E59.53255
G1 X126.218 Y43.439 E59.56877
G1 X126.638 Y43.499 E59.58994
G1 X127.665 Y43.679 E59.64196
G1 X128.373 Y43.844 E59.67823
G1 X129.058 Y44.085 E59.71446
G1 X129.83 Y44.466 E59.75741
G1 X130.731 Y44.987 E59.80933
G1 X131.339 Y45.385 E59.84559
G1 X131.899 Y45.847 E59.8818
G1 X132.479 Y46.454 E59.92369
G1 X133.149 Y47.251 E59.97564
G1 X133.585 Y47.832 E60.01188
G1 X133.955 Y48.457 E60.04811
G1 X134.298 Y49.239 E60.09071
G1 X134.655 Y50.219 E60.14275
G1 X134.866 Y50.914 E60.17899
G1 X134.999 Y51.628 E60.21522
G1 X135.054 Y52.472 E60.25742
G1 X135.1 Y100.993 E62.67814
G1 X135.061 Y101.718 E62.71436
G1 X135.001 Y102.139 E62.73558
G1 X134.821 Y103.165 E62.78755
G1 X134.656 Y103.873 E62.82382
G1 X134.415 Y104.558 E62.86005
G1 X134.035 Y105.326 E62.90279
G1 X133.514 Y106.228 E62.95476
G1 X133.117 Y106.836 E62.99099
G1 X132.96 Y107.026 E63.00329
G1 X133.149 Y107.251 E63.01795
G1 X133.585 Y107.832 E63.05419
G1 X133.955 Y108.457 E63.09042
G1 X134.298 Y109.239 E63.13302
G1 X134.655 Y110.219 E63.18506
G1 X134.866 Y110.914 E63.2213
G1 X134.999 Y111.628 E63.25753
G1 X135.054 Y112.472 E63.29973
G1 X135.1 Y160.993 E65.72045
G1 X135.061 Y161.718 E65.75667
G1 X135.001 Y162.139 E65.77789
G1 X134.821 Y163.165 E65.82986
G1 X134.656 Y163.873 E65.86613
G1 X134.415 Y164.558 E65.90236
G1 X134.035 Y165.326 E65.94511
G1 X133.514 Y166.228 E65.99707
G1 X133.117 Y166.836 E66.0333
G1 X132.655 Y167.397 E66.06956
G1 X132.046 Y167.979 E66.11159
G1 X131.249 Y168.649 E66.16353
G1 X130.668 Y169.085 E66.19977
G1 X130.043 Y169.455 E66.23601
G1 X129.261 Y169.798 E66.27861
G1 X128.281 Y170.155 E66.33064
G1 X127.586 Y170.366 E66.36688
G1 X126.872 Y170.499 E66.40312
G1 X126.028 Y170.554 E66.44531
G1 X77.507 Y170.6 E68.86604
G1 X76.782 Y170.561 E68.90226
G1 X76.362 Y170.501 E68.92342
G1 X75.335 Y170.321 E68.97544
G1 X74.627 Y170.156 E69.01171
G1 X73.942 Y169.915 E69.04794
G1 X73.17 Y169.534 E69.09089
G1 X72.269 Y169.013 E69.14282
G1 X71.661 Y168.615 E69.17907
G1 X71.101 Y168.153 E69.21529
G1 X70.521 Y167.546 E69.25717
G1 X69.851 Y166.749 E69.30912
G1 X69.415 Y166.168 E69.34536
G1 X69.045 Y165.543 E69.3816
G1 X68.702 Y164.761 E69.4242
G1 X68.345 Y163.781 E69.47623
G1 X68.134 Y163.086 E69.51247
G1 X68.001 Y162.372 E69.5487
G1 X67.946 Y161.528 E69.5909
G1 X67.9 Y113.007 E72.01163
G1 X67.939 Y112.282 E72.04785
G1 X67.999 Y111.861 E72.06906
G1 X68.179 Y110.835 E72.12103
G1 X68.344 Y110.127 E72.1573
G1 X68.585 Y109.442 E72.19353
G1 X68.965 Y108.674 E72.23628
G1 X69.486 Y107.772 E72.28825
G1 X69.883 Y107.164 E72.32447
G1 X70.04 Y106.974 E72.33677
G1 X69.851 Y106.749 E72.35143
G1 X69.415 Y106.168 E72.38767
G1 X69.045 Y105.543 E72.42391
G1 X68.702 Y104.761 E72.46651
G1 X68.345 Y103.781 E72.51855
G1 X68.134 Y103.086 E72.55478
G1 X68.001 Y102.372 E72.59102
G1 X67.946 Y101.528 E72.63321
G1 X67.9 Y53.007 E75.05394
G1 X67.939 Y52.282 E75.09016
G1 X67.999 Y51.861 E75.11137
G1 X68.179 Y50.835 E75.16334
G1 X68.344 Y50.127 E75.19961
G1 X68.585 Y49.442 E75.23584
G1 X68.965 Y48.674 E75.27859
G1 X69.486 Y47.772 E75.33056
G1 X69.883 Y47.164 E75.36679
G0 F3600 X70.218 Y47.383
G1 F1800 X70.669 Y46.842 E75.40192
G1 X71.211 Y46.327 E75.43923
G1 X72.008 Y45.657 E75.49117
G1 X72.572 Y45.235 E75.52631
G1 X73.18 Y44.88 E75.56144
G1 X73.876 Y44.577 E75.59931
G1 X74.856 Y44.22 E75.65135
G1 X75.53 Y44.017 E75.68646
G1 X76.223 Y43.892 E75.7216
G1 X76.972 Y43.846 E75.75903
G1 X125.493 Y43.8 E78.17976
G1 X126.196 Y43.839 E78.21488
G1 X126.569 Y43.893 E78.23369
G1 X127.596 Y44.073 E78.28571
G1 X128.282 Y44.234 E78.32086
G1 X128.945 Y44.471 E78.35599
G1 X129.63 Y44.813 E78.39419
G1 X130.531 Y45.334 E78.44611
G1 X131.119 Y45.72 E78.4812
G1 X131.66 Y46.171 E78.51634
G1 X132.173 Y46.711 E78.5535
G1 X132.843 Y47.508 E78.60545
G1 X133.265 Y48.072 E78.64059
G1 X133.62 Y48.68 E78.67571
G1 X133.923 Y49.376 E78.71359
G1 X134.28 Y50.356 E78.76562
G1 X134.483 Y51.03 E78.80074
G1 X134.608 Y51.723 E78.83587
G1 X134.654 Y52.472 E78.87331
G1 X134.7 Y100.993 E81.29403
G1 X134.661 Y101.696 E81.32916
G1 X134.607 Y102.07 E81.34801
G1 X134.427 Y103.096 E81.39998
G1 X134.266 Y103.782 E81.43514
G1 X134.028 Y104.444 E81.47023
G1 X133.689 Y105.126 E81.50823
G1 X133.168 Y106.028 E81.5602
G1 X132.782 Y106.617 E81.59533
G1 X132.439 Y107.028 E81.62204
G1 X132.843 Y107.508 E81.65334
G1 X133.265 Y108.072 E81.68848
G1 X133.62 Y108.68 E81.72361
G1 X133.923 Y109.376 E81.76148
G1 X134.28 Y110.356 E81.81351
G1 X134.483 Y111.03 E81.84863
G1 X134.608 Y111.723 E81.88376
G1 X134.654 Y112.472 E81.9212
G1 X134.7 Y160.993 E84.34193
G1 X134.661 Y161.696 E84.37705
G1 X134.607 Y162.07 E84.39591
G1 X134.427 Y163.096 E84.44787
G1 X134.266 Y163.782 E84.48303
G1 X134.028 Y164.444 E84.51813
G1 X133.689 Y165.126 E84.55612
G1 X133.168 Y166.028 E84.60809
G1 X132.782 Y166.617 E84.64322
G1 X132.331 Y167.158 E84.67836
G1 X131.789 Y167.673 E84.71566
G1 X130.992 Y168.343 E84.76761
G1 X130.428 Y168.765 E84.80275
G1 X129.82 Y169.12 E84.83788
G1 X129.124 Y169.423 E84.87575
G1 X128.144 Y169.78 E84.92778
G1 X127.47 Y169.983 E84.9629
G1 X126.777 Y170.108 E84.99803
G1 X126.028 Y170.154 E85.03547
G1 X77.507 Y170.2 E87.4562
G1 X76.804 Y170.161 E87.49132
G1 X76.431 Y170.107 E87.51013
G1 X75.404 Y169.927 E87.56214
G1 X74.718 Y169.766 E87.5973
G1 X74.055 Y169.529 E87.63243
G1 X73.37 Y169.187 E87.67062
G1 X72.469 Y168.666 E87.72255
G1 X71.881 Y168.28 E87.75764
G1 X71.34 Y167.829 E87.79278
G1 X70.827 Y167.289 E87.82994
G1 X70.157 Y166.492 E87.88189
G1 X69.735 Y165.928 E87.91703
G1 X69.38 Y165.32 E87.95215
G1 X69.077 Y164.624 E87.99002
G1 X68.72 Y163.644 E88.04206
G1 X68.517 Y162.97 E88.07718
G1 X68.392 Y162.277 E88.11231
G1 X68.346 Y161.528 E88.14975
G1 X68.3 Y113.007 E90.57047
G1 X68.339 Y112.304 E90.6056
