;FLAVOR:Marlin
;TIME:3550
;Filament used: 3.13915m
;Layer height: 0.15
;Generated with Cura_SteamEngine 3.3.1
M190 S60
M104 S200
M109 S200
M82 ;absolute extrusion mode
G28 ;Home
G1 Z15.0 F6000 ;Move the platform down 15mm
;Prime the extruder
G92 E0
G1 F200 E3
G92 E0
G92 E0
G1 F1500 E-6.5
;LAYER_COUNT:40
;LAYER:0
M107
G0 F3600 X70.979 Y94.432 Z0.3
;TYPE:SKIRT
G1 F1500 E0
G1 F1800 X71.608 Y93.956 E0.03935
G1 X72.283 Y93.545 E0.07878
G1 X73.328 Y93.074 E0.13597
G1 X74.308 Y92.717 E0.188
G1 X75.063 Y92.485 E0.22741
G1 X75.837 Y92.33 E0.26679
G1 X76.971 Y92.246 E0.32352
G1 X125.492 Y92.2 E2.74424
G1 X126.28 Y92.239 E2.78361
G1 X126.846 Y92.317 E2.81211
G1 X127.873 Y92.497 E2.86413
G1 X128.642 Y92.673 E2.90349
G1 X129.391 Y92.925 E2.94291
G1 X130.431 Y93.428 E3.00055
G1 X131.332 Y93.949 E3.05247
G1 X131.994 Y94.378 E3.09183
G1 X132.61 Y94.872 E3.13122
G1 X133.398 Y95.682 E3.1876
G1 X134.068 Y96.479 E3.23955
G1 X134.544 Y97.108 E3.2789
G1 X134.955 Y97.783 E3.31833
G1 X135.426 Y98.828 E3.37552
G1 X135.783 Y99.808 E3.42755
G1 X136.015 Y100.563 E3.46696
G1 X136.17 Y101.337 E3.50634
G1 X136.254 Y102.471 E3.56307
G1 X136.3 Y150.992 E5.98379
G1 X136.261 Y151.78 E6.02315
G1 X136.183 Y152.347 E6.05171
G1 X136.003 Y153.373 E6.10368
G1 X135.827 Y154.143 E6.14308
G1 X135.574 Y154.891 E6.18248
G1 X135.074 Y155.926 E6.23982
G1 X134.553 Y156.828 E6.29179
G1 X134.124 Y157.491 E6.33119
G1 X133.63 Y158.107 E6.37058
G1 X132.818 Y158.898 E6.42714
G1 X132.021 Y159.568 E6.47908
G1 X131.392 Y160.044 E6.51844
G1 X130.717 Y160.455 E6.55787
G1 X129.672 Y160.926 E6.61505
G1 X128.692 Y161.283 E6.66709
G1 X127.937 Y161.515 E6.70649
G1 X127.163 Y161.67 E6.74587
G1 X126.029 Y161.754 E6.80261
G1 X77.508 Y161.8 E9.22333
G1 X76.72 Y161.761 E9.26269
G1 X76.154 Y161.683 E9.2912
G1 X75.127 Y161.503 E9.34321
G1 X74.358 Y161.327 E9.38257
G1 X73.609 Y161.075 E9.422
G1 X72.569 Y160.572 E9.47963
G1 X71.668 Y160.051 E9.53156
G1 X71.006 Y159.622 E9.57091
G1 X70.39 Y159.128 E9.61031
G1 X69.602 Y158.318 E9.66669
G1 X68.932 Y157.521 E9.71863
G1 X68.456 Y156.892 E9.75799
G1 X68.045 Y156.217 E9.79741
G1 X67.574 Y155.172 E9.8546
G1 X67.217 Y154.192 E9.90664
G1 X66.985 Y153.437 E9.94604
G1 X66.83 Y152.663 E9.98542
G1 X66.746 Y151.529 E10.04215
G1 X66.7 Y103.008 E12.46288
G1 X66.739 Y102.22 E12.50224
G1 X66.817 Y101.653 E12.53079
G1 X66.997 Y100.627 E12.58276
G1 X67.173 Y99.857 E12.62217
G1 X67.426 Y99.109 E12.66156
G1 X67.926 Y98.074 E12.71891
G1 X68.447 Y97.172 E12.77088
G1 X68.876 Y96.509 E12.81027
G1 X69.37 Y95.893 E12.84967
G1 X70.182 Y95.102 E12.90622
G1 X70.979 Y94.432 E12.95817
G0 F3600 X71.236 Y94.739
G1 F1800 X71.85 Y94.275 E12.99657
G1 X72.508 Y93.877 E13.03493
G1 X73.465 Y93.45 E13.08721
G1 X74.445 Y93.093 E13.13925
G1 X75.181 Y92.868 E13.17765
G1 X75.935 Y92.72 E13.21598
G1 X76.971 Y92.646 E13.2678
G1 X125.492 Y92.6 E15.68852
G1 X126.26 Y92.639 E15.72689
G1 X126.777 Y92.711 E15.75293
G1 X127.804 Y92.891 E15.80495
G1 X128.553 Y93.063 E15.84329
G1 X129.281 Y93.312 E15.88167
G1 X130.23 Y93.774 E15.93433
G1 X131.131 Y94.295 E15.98626
G1 X131.776 Y94.714 E16.02463
G1 X132.374 Y95.198 E16.06301
G1 X133.091 Y95.939 E16.11445
G1 X133.761 Y96.736 E16.1664
G1 X134.225 Y97.35 E16.2048
G1 X134.623 Y98.008 E16.24316
G1 X135.05 Y98.965 E16.29544
G1 X135.407 Y99.945 E16.34748
G1 X135.632 Y100.681 E16.38588
G1 X135.78 Y101.435 E16.42421
G1 X135.854 Y102.471 E16.47603
G1 X135.9 Y150.992 E18.89675
G1 X135.861 Y151.76 E18.93512
G1 X135.789 Y152.278 E18.96121
G1 X135.609 Y153.304 E19.01318
G1 X135.437 Y154.053 E19.05152
G1 X135.188 Y154.781 E19.0899
G1 X134.728 Y155.726 E19.14234
G1 X134.207 Y156.628 E19.19431
G1 X133.788 Y157.273 E19.23268
G1 X133.305 Y157.872 E19.27107
G1 X132.561 Y158.591 E19.32269
G1 X131.764 Y159.261 E19.37463
G1 X131.15 Y159.725 E19.41303
G1 X130.492 Y160.123 E19.4514
G1 X129.535 Y160.55 E19.50368
G1 X128.555 Y160.907 E19.55571
G1 X127.819 Y161.132 E19.59411
G1 X127.065 Y161.28 E19.63244
G1 X126.029 Y161.354 E19.68426
G1 X77.508 Y161.4 E22.10499
G1 X76.74 Y161.361 E22.14335
G1 X76.223 Y161.289 E22.16939
G1 X75.196 Y161.109 E22.22141
G1 X74.447 Y160.937 E22.25975
G1 X73.719 Y160.688 E22.29814
G1 X72.77 Y160.226 E22.3508
G1 X71.869 Y159.705 E22.40272
G1 X71.224 Y159.286 E22.44109
G1 X70.626 Y158.802 E22.47948
G1 X69.909 Y158.061 E22.53092
G1 X69.239 Y157.264 E22.58286
G1 X68.775 Y156.65 E22.62126
G1 X68.377 Y155.992 E22.65963
G1 X67.95 Y155.035 E22.71191
G1 X67.593 Y154.055 E22.76394
G1 X67.368 Y153.319 E22.80234
G1 X67.22 Y152.565 E22.84067
G1 X67.146 Y151.529 E22.89249
G1 X67.1 Y103.008 E25.31322
G1 X67.139 Y102.24 E25.35158
G1 X67.211 Y101.722 E25.37767
G1 X67.391 Y100.696 E25.42964
G1 X67.563 Y99.947 E25.46798
G1 X67.812 Y99.219 E25.50637
G1 X68.272 Y98.274 E25.5588
G1 X68.793 Y97.372 E25.61077
G1 X69.212 Y96.727 E25.64914
G1 X69.695 Y96.128 E25.68753
G1 X70.439 Y95.409 E25.73915
G1 X71.236 Y94.739 E25.7911
G0 F3600 X71.494 Y95.045
G1 F1800 X72.091 Y94.595 E25.8284
G1 X72.733 Y94.211 E25.86572
G1 X73.602 Y93.826 E25.91314
G1 X74.582 Y93.469 E25.96517
G1 X75.298 Y93.251 E26.00251
G1 X76.032 Y93.11 E26.0398
G1 X76.971 Y93.046 E26.08676
G1 X125.492 Y93 E28.50748
G1 X126.239 Y93.039 E28.5448
G1 X126.707 Y93.105 E28.56838
G1 X127.734 Y93.285 E28.6204
G1 X128.463 Y93.453 E28.65772
G1 X129.17 Y93.699 E28.69507
G1 X130.03 Y94.12 E28.74284
G1 X130.931 Y94.641 E28.79476
G1 X131.558 Y95.05 E28.83211
G1 X132.137 Y95.523 E28.86941
G1 X132.785 Y96.197 E28.91606
G1 X133.455 Y96.994 E28.968
G1 X133.905 Y97.591 E29.0053
G1 X134.289 Y98.233 E29.04262
G1 X134.674 Y99.102 E29.09004
G1 X135.031 Y100.082 E29.14208
G1 X135.249 Y100.798 E29.17942
G1 X135.39 Y101.532 E29.21671
G1 X135.454 Y102.471 E29.26366
G1 X135.5 Y150.992 E31.68439
G1 X135.461 Y151.739 E31.72171
G1 X135.395 Y152.209 E31.74538
G1 X135.215 Y153.235 E31.79735
G1 X135.046 Y153.963 E31.83464
G1 X134.801 Y154.67 E31.87197
G1 X134.382 Y155.526 E31.91952
G1 X133.861 Y156.428 E31.97149
G1 X133.452 Y157.055 E32.00883
G1 X132.979 Y157.635 E32.04617
G1 X132.303 Y158.285 E32.09296
G1 X131.506 Y158.955 E32.1449
G1 X130.909 Y159.405 E32.1822
G1 X130.267 Y159.789 E32.21952
G1 X129.398 Y160.174 E32.26694
G1 X128.418 Y160.531 E32.31898
G1 X127.702 Y160.749 E32.35632
G1 X126.968 Y160.89 E32.39361
G1 X126.029 Y160.954 E32.44056
G1 X77.508 Y161 E34.86129
G1 X76.761 Y160.961 E34.89861
G1 X76.293 Y160.895 E34.92219
G1 X75.266 Y160.715 E34.9742
G1 X74.537 Y160.547 E35.01153
G1 X73.83 Y160.301 E35.04887
G1 X72.97 Y159.88 E35.09664
G1 X72.069 Y159.359 E35.14857
G1 X71.442 Y158.95 E35.18592
G1 X70.863 Y158.477 E35.22322
G1 X70.215 Y157.803 E35.26986
G1 X69.545 Y157.006 E35.32181
G1 X69.095 Y156.409 E35.35911
G1 X68.711 Y155.767 E35.39643
G1 X68.326 Y154.898 E35.44385
G1 X67.969 Y153.918 E35.49588
G1 X67.751 Y153.202 E35.53322
G1 X67.61 Y152.468 E35.57051
G1 X67.546 Y151.529 E35.61747
G1 X67.5 Y103.008 E38.03819
G1 X67.539 Y102.261 E38.07551
G1 X67.605 Y101.791 E38.09919
G1 X67.785 Y100.765 E38.15116
G1 X67.954 Y100.037 E38.18845
G1 X68.199 Y99.33 E38.22578
G1 X68.618 Y98.474 E38.27332
G1 X69.139 Y97.572 E38.32529
G1 X69.548 Y96.945 E38.36264
G1 X70.021 Y96.365 E38.39998
G1 X70.697 Y95.715 E38.44677
G1 X71.494 Y95.045 E38.49871
G0 F3600 X71.751 Y95.351
G1 F1800 X72.332 Y94.915 E38.53495
G1 X72.957 Y94.545 E38.57119
G1 X73.739 Y94.202 E38.61379
G1 X74.719 Y93.845 E38.66583
G1 X75.414 Y93.634 E38.70206
G1 X76.128 Y93.501 E38.7383
G1 X76.972 Y93.446 E38.78049
G1 X125.493 Y93.4 E41.20122
G1 X126.218 Y93.439 E41.23744
G1 X126.638 Y93.499 E41.25861
G1 X127.665 Y93.679 E41.31062
G1 X128.373 Y93.844 E41.34689
G1 X129.058 Y94.085 E41.38312
G1 X129.83 Y94.466 E41.42607
G1 X130.731 Y94.987 E41.478
G1 X131.339 Y95.385 E41.51425
G1 X131.899 Y95.847 E41.55047
G1 X132.479 Y96.454 E41.59236
G1 X133.149 Y97.251 E41.6443
G1 X133.585 Y97.832 E41.68054
G1 X133.955 Y98.457 E41.71678
G1 X134.298 Y99.239 E41.75938
G1 X134.655 Y100.219 E41.81141
G1 X134.866 Y100.914 E41.84765
G1 X134.999 Y101.628 E41.88389
G1 X135.054 Y102.472 E41.92608
G1 X135.1 Y150.993 E44.34681
G1 X135.061 Y151.718 E44.38303
G1 X135.001 Y152.139 E44.40424
G1 X134.821 Y153.165 E44.45621
G1 X134.656 Y153.873 E44.49248
G1 X134.415 Y154.558 E44.52871
G1 X134.035 Y155.326 E44.57146
G1 X133.514 Y156.228 E44.62343
G1 X133.117 Y156.836 E44.65966
G1 X132.655 Y157.397 E44.69591
G1 X132.046 Y157.979 E44.73794
G1 X131.249 Y158.649 E44.78989
G1 X130.668 Y159.085 E44.82613
G1 X130.043 Y159.455 E44.86236
G1 X129.261 Y159.798 E44.90496
G1 X128.281 Y160.155 E44.957
G1 X127.586 Y160.366 E44.99324
G1 X126.872 Y160.499 E45.02947
G1 X126.028 Y160.554 E45.07167
G1 X77.507 Y160.6 E47.49239
G1 X76.782 Y160.561 E47.52861
G1 X76.362 Y160.501 E47.54978
G1 X75.335 Y160.321 E47.6018
G1 X74.627 Y160.156 E47.63807
G1 X73.942 Y159.915 E47.67429
G1 X73.17 Y159.534 E47.71724
G1 X72.269 Y159.013 E47.76917
G1 X71.661 Y158.615 E47.80542
G1 X71.101 Y158.153 E47.84164
G1 X70.521 Y157.546 E47.88353
G1 X69.851 Y156.749 E47.93547
G1 X69.415 Y156.168 E47.97172
G1 X69.045 Y155.543 E48.00795
G1 X68.702 Y154.761 E48.05055
G1 X68.345 Y153.781 E48.10259
G1 X68.134 Y153.086 E48.13882
G1 X68.001 Y152.372 E48.17506
G1 X67.946 Y151.528 E48.21726
G1 X67.9 Y103.007 E50.63798
G1 X67.939 Y102.282 E50.6742
G1 X67.999 Y101.861 E50.69542
G1 X68.179 Y100.835 E50.74739
G1 X68.344 Y100.127 E50.78366
G1 X68.585 Y99.442 E50.81988
G1 X68.965 Y98.674 E50.86263
G1 X69.486 Y97.772 E50.9146
G1 X69.883 Y97.164 E50.95083
G1 X70.345 Y96.603 E50.98709
G1 X70.954 Y96.021 E51.02911
G1 X71.751 Y95.351 E51.08106
G0 F3600 X72.008 Y95.657
G1 F1800 X72.572 Y95.235 E51.1162
G1 X73.18 Y94.88 E51.15133
G1 X73.876 Y94.577 E51.1892
G1 X74.856 Y94.22 E51.24123
G1 X75.53 Y94.017 E51.27635
G1 X76.223 Y93.892 E51.31148
G1 X76.972 Y93.846 E51.34892
G1 X125.493 Y93.8 E53.76965
G1 X126.196 Y93.839 E53.80477
G1 X126.569 Y93.893 E53.82358
G1 X127.596 Y94.073 E53.87559
G1 X128.282 Y94.234 E53.91075
G1 X128.945 Y94.471 E53.94588
G1 X129.63 Y94.813 E53.98407
G1 X130.531 Y95.334 E54.036
G1 X131.119 Y95.72 E54.07109
G1 X131.66 Y96.171 E54.10623
G1 X132.173 Y96.711 E54.14339
G1 X132.843 Y97.508 E54.19533
G1 X133.265 Y98.072 E54.23048
G1 X133.62 Y98.68 E54.2656
G1 X133.923 Y99.376 E54.30347
G1 X134.28 Y100.356 E54.35551
G1 X134.483 Y101.03 E54.39063
G1 X134.608 Y101.723 E54.42576
G1 X134.654 Y102.472 E54.4632
G1 X134.7 Y150.993 E56.88392
G1 X134.661 Y151.696 E56.91905
G1 X134.607 Y152.07 E56.9379
G1 X134.427 Y153.096 E56.98987
G1 X134.266 Y153.782 E57.02502
G1 X134.028 Y154.444 E57.06012
G1 X133.689 Y155.126 E57.09812
G1 X133.168 Y156.028 E57.15009
G1 X132.782 Y156.617 E57.18522
G1 X132.331 Y157.158 E57.22036
G1 X131.789 Y157.673 E57.25766
G1 X130.992 Y158.343 E57.30961
G1 X130.428 Y158.765 E57.34475
G1 X129.82 Y159.12 E57.37987
G1 X129.124 Y159.423 E57.41774
G1 X128.144 Y159.78 E57.46978
G1 X127.47 Y159.983 E57.5049
G1 X126.777 Y160.108 E57.54003
G1 X126.028 Y160.154 E57.57747
G1 X77.507 Y160.2 E59.99819
G1 X76.804 Y160.161 E60.03332
G1 X76.431 Y160.107 E60.05212
G1 X75.404 Y159.927 E60.10414
G1 X74.718 Y159.766 E60.13929
G1 X74.055 Y159.529 E60.17442
G1 X73.37 Y159.187 E60.21262
G1 X72.469 Y158.666 E60.26454
G1 X71.881 Y158.28 E60.29964
G1 X71.34 Y157.829 E60.33477
G1 X70.827 Y157.289 E60.37193
G1 X70.157 Y156.492 E60.42388
G1 X69.735 Y155.928 E60.45902
G1 X69.38 Y155.32 E60.49415
G1 X69.077 Y154.624 E60.53202
G1 X68.72 Y153.644 E60.58406
G1 X68.517 Y152.97 E60.61917
G1 X68.392 Y152.277 E60.65431
G1 X68.346 Y151.528 E60.69174
G1 X68.3 Y103.007 E63.11247
G1 X68.339 Y102.304 E63.14759
G1 X68.393 Y101.93 E63.16645
G1 X68.573 Y100.904 E63.21842
G1 X68.734 Y100.218 E63.25357
G1 X68.972 Y99.556 E63.28867
G1 X69.311 Y98.874 E63.32666
G1 X69.832 Y97.972 E63.37863
G1 X70.218 Y97.383 E63.41377
G1 X70.669 Y96.842 E63.4489
G1 X71.211 Y96.327 E63.48621
G1 X72.008 Y95.657 E63.53815
G0 F3600 X72.266 Y95.963
G1 F1800 X72.812 Y95.557 E63.5721
G1 X73.402 Y95.217 E63.60607
G1 X74.013 Y94.953 E63.63928
G1 X74.993 Y94.596 E63.69131
G1 X75.645 Y94.401 E63.72526
G1 X76.316 Y94.284 E63.75925
G1 X76.973 Y94.246 E63.79208
G1 X125.494 Y94.2 E66.2128
G1 X126.5 Y94.287 E66.26318
G1 X127.527 Y94.467 E66.3152
G1 X128.19 Y94.624 E66.34919
G1 X128.83 Y94.857 E66.38317
G1 X129.429 Y95.159 E66.41664
G1 X130.33 Y95.68 E66.46856
G1 X130.899 Y96.055 E66.50256
G1 X131.419 Y96.494 E66.53651
G1 X131.867 Y96.969 E66.56909
G1 X132.537 Y97.766 E66.62103
G1 X132.943 Y98.312 E66.65498
G1 X133.283 Y98.902 E66.68895
G1 X133.547 Y99.513 E66.72216
G1 X133.904 Y100.493 E66.77419
G1 X134.099 Y101.145 E66.80815
G1 X134.216 Y101.816 E66.84213
G1 X134.254 Y102.473 E66.87496
G1 X134.3 Y150.994 E69.29568
G1 X134.213 Y152.001 E69.34611
G1 X134.033 Y153.027 E69.39808
G1 X133.876 Y153.69 E69.43207
G1 X133.643 Y154.329 E69.466
G1 X133.342 Y154.926 E69.49936
G1 X132.821 Y155.828 E69.55133
G1 X132.447 Y156.397 E69.5853
G1 X132.008 Y156.917 E69.61925
G1 X131.531 Y157.367 E69.65197
G1 X130.734 Y158.037 E69.70391
G1 X130.188 Y158.443 E69.73786
G1 X129.598 Y158.783 E69.77183
G1 X128.987 Y159.047 E69.80504
G1 X128.007 Y159.404 E69.85707
G1 X127.355 Y159.599 E69.89103
G1 X126.684 Y159.716 E69.92501
G1 X126.027 Y159.754 E69.95784
G1 X77.506 Y159.8 E72.37856
G1 X76.5 Y159.713 E72.42894
G1 X75.473 Y159.533 E72.48096
G1 X74.81 Y159.376 E72.51495
G1 X74.17 Y159.143 E72.54893
G1 X73.571 Y158.841 E72.5824
G1 X72.67 Y158.32 E72.63432
G1 X72.101 Y157.945 E72.66832
G1 X71.581 Y157.506 E72.70227
G1 X71.133 Y157.031 E72.73485
G1 X70.463 Y156.234 E72.78679
G1 X70.057 Y155.688 E72.82074
G1 X69.717 Y155.098 E72.85471
G1 X69.453 Y154.487 E72.88792
G1 X69.096 Y153.507 E72.93995
G1 X68.901 Y152.855 E72.97391
G1 X68.784 Y152.184 E73.00789
G1 X68.746 Y151.527 E73.04072
G1 X68.7 Y103.006 E75.46144
G1 X68.787 Y101.999 E75.51187
G1 X68.967 Y100.973 E75.56384
G1 X69.124 Y100.31 E75.59783
G1 X69.357 Y99.671 E75.63177
G1 X69.658 Y99.074 E75.66512
G1 X70.179 Y98.172 E75.71709
G1 X70.553 Y97.603 E75.75106
G1 X70.992 Y97.083 E75.78501
G1 X71.469 Y96.633 E75.81773
G1 X72.266 Y95.963 E75.86967
G0 F3600 X72.523 Y96.27
G1 F1800 X73.051 Y95.878 E75.90248
G1 X73.622 Y95.554 E75.93524
G1 X74.15 Y95.329 E75.96387
G1 X75.13 Y94.972 E76.01591
G1 X75.759 Y94.785 E76.04864
G1 X76.407 Y94.676 E76.08143
G1 X76.973 Y94.646 E76.1097
G1 X125.494 Y94.6 E78.53043
G1 X126.431 Y94.681 E78.57735
G1 X127.458 Y94.861 E78.62937
G1 X128.097 Y95.014 E78.66215
G1 X128.713 Y95.243 E78.69494
G1 X129.229 Y95.505 E78.72381
G1 X130.13 Y96.026 E78.77573
G1 X130.678 Y96.389 E78.80853
G1 X131.177 Y96.816 E78.84129
G1 X131.56 Y97.226 E78.86928
G1 X132.23 Y98.023 E78.92123
G1 X132.622 Y98.551 E78.95404
G1 X132.946 Y99.122 E78.98679
G1 X133.171 Y99.65 E79.01543
G1 X133.528 Y100.63 E79.06746
G1 X133.715 Y101.259 E79.1002
G1 X133.824 Y101.907 E79.13298
G1 X133.854 Y102.473 E79.16126
G1 X133.9 Y150.994 E81.58198
G1 X133.819 Y151.932 E81.62896
G1 X133.639 Y152.958 E81.68092
G1 X133.486 Y153.597 E81.71371
G1 X133.257 Y154.213 E81.74649
G1 X132.996 Y154.726 E81.77521
G1 X132.475 Y155.628 E81.82718
G1 X132.112 Y156.176 E81.85997
G1 X131.686 Y156.675 E81.8927
G1 X131.274 Y157.06 E81.92084
G1 X130.477 Y157.73 E81.97278
G1 X129.949 Y158.122 E82.00559
G1 X129.378 Y158.446 E82.03834
G1 X128.85 Y158.671 E82.06698
G1 X127.87 Y159.028 E82.11901
G1 X127.241 Y159.215 E82.15175
G1 X126.593 Y159.324 E82.18454
G1 X126.027 Y159.354 E82.21281
G1 X77.506 Y159.4 E84.63354
G1 X76.569 Y159.319 E84.68046
G1 X75.542 Y159.139 E84.73248
G1 X74.903 Y158.986 E84.76526
G1 X74.287 Y158.757 E84.79804
G1 X73.771 Y158.495 E84.82692
G1 X72.87 Y157.974 E84.87884
G1 X72.322 Y157.611 E84.91164
G1 X71.823 Y157.184 E84.9444
G1 X71.44 Y156.774 E84.97239
G1 X70.77 Y155.977 E85.02434
G1 X70.378 Y155.449 E85.05715
G1 X70.054 Y154.878 E85.0899
G1 X69.829 Y154.35 E85.11853
G1 X69.472 Y153.37 E85.17057
G1 X69.285 Y152.741 E85.20331
G1 X69.176 Y152.093 E85.23609
G1 X69.146 Y151.527 E85.26437
G1 X69.1 Y103.006 E87.68509
G1 X69.181 Y102.068 E87.73206
G1 X69.361 Y101.042 E87.78403
G1 X69.514 Y100.403 E87.81681
G1 X69.743 Y99.787 E87.8496
G1 X70.004 Y99.274 E87.87832
G1 X70.525 Y98.372 E87.93029
G1 X70.888 Y97.824 E87.96308
